icon/lg/nim-lang.svg

<?xml version="1.0" encoding="UTF-8"?>
<svg viewBox="0 0 512 141" version="1.1" xmlns="http://www.w3.org/2000/svg" xmlns:xlink="http://www.w3.org/1999/xlink" preserveAspectRatio="xMidYMid" height="1em" width="1em">
  <g>
    <path d="M253.693237,129.15292 L253.693237,39.2071366 L298.667051,39.2071366 L298.667051,39.2071366 C311.35079,39.2071366 322.882301,50.7386473 322.883634,63.4233091 L322.883634,129.15292 L322.883634,129.15292 L306.739109,129.15292 L306.738186,66.8827624 L306.738186,66.8827624 C306.738186,60.6125034 302.125582,55.3512516 295.206675,55.3512516 L269.837352,55.3512516 L269.837352,55.3512516 L269.837352,140.684431 L253.693237,129.15292 Z M352.865152,129.15292 L352.865152,39.2071366 L369.009267,39.2071366 L369.009267,129.15292 L352.865152,129.15292 Z M352.865152,18.4504172 L369.009267,18.4504172 L369.009267,0 L352.865152,11.5315108 L352.865152,18.4504172 Z M415.13531,129.15292 L398.991195,129.15292 L398.991195,39.2071366 L487.783827,39.2071366 C501.62164,39.2071366 512,49.5854962 512,63.4233091 L512,129.15292 L495.855885,140.684431 L495.854962,66.8827624 C495.85487,59.9638559 491.242358,55.3512516 484.323452,55.3512516 L463.567655,55.3512516 L463.567655,129.15292 L447.42354,129.15292 L447.42354,55.3512516 L415.13531,55.3512516 L415.13531,129.15292 Z" fill="#000000"/>
    <path d="M103.444986,2.62196198e-13 C103.444986,2.62196198e-13 95.5797802,6.21553042 87.5616902,12.3889247 C79.3134081,12.1268827 63.1355057,13.9737694 54.3696894,17.1617248 C46.2945645,12.0459084 39.1991337,6.39756685 39.1991337,6.39756685 C39.1991337,6.39756685 33.1359576,16.8285563 29.3229944,22.9499435 C23.6682413,25.9574307 17.990702,29.3401071 12.930629,33.8156248 C7.04522262,31.4785797 0.222673473,28.6293048 0,28.5351385 C7.7940328,44.2559318 13.0336284,59.9975279 27.2866449,69.4589941 C49.9782826,33.6212266 155.424354,36.9243356 178.585117,69.2558089 C193.55311,61.4487224 199.374401,44.6518316 205.260891,29.1443251 C204.61545,29.3569662 196.606008,32.0384345 191.413946,34.0186717 C188.313953,30.6437214 181.007126,25.4547491 176.854237,22.9498974 C172.915027,15.7364531 167.181721,5.99135785 167.181721,5.99135785 C167.181721,5.99135785 160.391114,11.0419289 152.520235,16.5523767 C141.886822,14.589529 129.025474,12.2045589 118.208248,12.7950415 C110.844548,6.74247434 103.444986,2.62196198e-13 103.444986,2.62196198e-13 L103.444986,2.62196198e-13 Z" fill="#F3D400"/>
    <path d="M8.05863485,61.9443237 C8.05863485,61.9443237 19.1055223,88.6923548 26.7777363,107.278798 C59.2879479,150.169721 142.305808,153.15147 178.497362,108.109205 C187.0617,88.8083157 198.61602,61.6838038 198.61602,61.6838038 C189.331078,75.4387974 174.220417,84.9339587 164.914003,90.048668 C158.301028,93.6714536 143.042464,95.8612644 143.042464,95.8612644 L102.982895,75.1020542 L62.6931569,95.4460378 C62.6931569,95.4460378 47.6374781,93.0271419 40.8215711,89.8410316 C27.0651246,82.4975811 17.8129784,73.8216414 8.05863485,61.9443237 Z" fill="#FFE953"/>
  </g>
</svg>

<svg width="512" height="141" xmlns="http://www.w3.org/2000/svg" preserveAspectRatio="xMidYMid"><path d="M253.693 129.153V39.207h44.974c12.684 0 24.215 11.532 24.217 24.216v65.73h-16.145v-62.27c0-6.27-4.613-11.532-11.532-11.532h-25.37v85.333l-16.144-11.531Zm99.172 0V39.207h16.144v89.946h-16.144Zm0-110.703h16.144V0l-16.144 11.532v6.918Zm62.27 110.703h-16.144V39.207h88.793c13.838 0 24.216 10.378 24.216 24.216v65.73l-16.144 11.531-.001-73.801c0-6.92-4.613-11.532-11.532-11.532h-20.755v73.802h-16.144V55.35h-32.289v73.802Z"/><path d="M103.445 0S95.58 6.216 87.562 12.389c-8.249-.262-24.426 1.585-33.192 4.773C46.295 12.046 39.2 6.398 39.2 6.398s-6.064 10.43-9.877 16.552c-5.655 3.007-11.332 6.39-16.392 10.866A901.116 901.116 0 0 1 0 28.536c7.794 15.72 13.034 31.462 27.287 40.923 22.691-35.838 128.137-32.535 151.298-.203 14.968-7.807 20.79-24.604 26.676-40.112-.646.213-8.655 2.894-13.847 4.875-3.1-3.375-10.407-8.564-14.56-11.07-3.939-7.213-9.672-16.958-9.672-16.958s-6.79 5.05-14.662 10.561c-10.633-1.962-23.495-4.347-34.312-3.757C110.845 6.742 103.445 0 103.445 0Z" fill="#F3D400"/><path d="M8.059 61.944s11.047 26.748 18.719 45.335c32.51 42.89 115.528 45.872 151.72.83 8.564-19.3 20.118-46.425 20.118-46.425-9.285 13.755-24.396 23.25-33.702 28.365-6.613 3.622-21.872 5.812-21.872 5.812l-40.06-20.759-40.289 20.344s-15.056-2.419-21.871-5.605c-13.757-7.343-23.009-16.02-32.763-27.897Z" fill="#FFE953"/></svg>
